X: 2286
T: Back Of The Haggard, The
R: hornpipe
M: 4/4
K: Dmajor
|:A2|dcdf ecAc|dBGB AFDF|EGFA GBgf|edcB AABc|
dcdf e^deg|fefg afdA|BdcB AGFE|D2 d2 d2:|
|:B2|A^GAc ecAc|edcB Adfa|gfeg fedf|(3efe (3dcB (3ABA (3GFE|
FAdf afda|BdcB (3ABA (3GFE|(3DFA (3dfa d' z:|

